X:1976
T:Boys of Ballisodare, The
R:reel
I:speed 350
E:7.5
M:C|
K:DMix
dG~G2 dGeG|dG~G2 BAAB|dG~G2 dedB|AcBA GED2|\
dG~G2 dGeG|dG~G2 BAAB|EFGB eBdB|AcBA GED2||*
efga bc'ba|gfga be~e2|~g3a bgaf|gfed Be~e2|\
~g3a bc'ba|gfga be~e2|bgaf gedB|AcBA GED2||*
Bd~d2 Bdgd|Bdgd BA~A2|~B3 d e2dB|AcBA GED2|\
Bd~d2 Bdgd|Bdgd BA~A2|eB~B2 eBdB|AcBA GED2||**
